X: 22734
T: Lamplighter, The
R: hornpipe
M: 4/4
K: Amajor
|:cd|ecec eagf|ecec eagf|eceg fedc|d2 B2 B2 cd|
ecec eagf|ecec eagf|efed cBAG|A2 A2 A2:|
|:cd|edcd egfe|dcBc dfed|cAce dcBA|G2 B2 B2 cd|
edcd egfe|dcBc d2 d2|cecA BdBG|A2 A2 A2:|

